public/images/wf.svg

<svg width="76" height="39" viewBox="0 0 76 39" fill="none" xmlns="http://www.w3.org/2000/svg">
<path fill-rule="evenodd" clip-rule="evenodd" d="M0.63623 3.20287V1.33447H7.4627V3.20287H5.53315L7.95543 11.8502L10.8898 1.35515H13.961L16.9275 11.9774L19.2969 3.20287H17.2658V1.35515H35.0757V6.15924H33.5359C33.1395 4.72593 32.9926 3.20287 30.9697 3.20287H27.5822V7.60663H31.7911C32.1646 8.18646 32.1347 9.18423 31.7911 9.6906H27.5822V14.1969H31.418C33.0308 14.1969 33.37 12.6562 33.7413 11.0249H35.2811V16.0855H22.655V14.1969H24.4512V3.20287H21.5917L17.9015 16.0855H14.9561L11.9896 5.4813L8.96068 16.0855H5.9942L2.30886 3.20287H0.63623Z" fill="#343434"/>
<path fill-rule="evenodd" clip-rule="evenodd" d="M36.7959 3.20368V1.35596H43.7315V3.20368H41.7258V14.1977H44.8375C46.4503 14.1977 46.7895 12.657 47.1608 11.0257H48.7005V16.0863H36.7985V14.1977H38.5948V3.20368H36.7959Z" fill="#343434"/>
<path fill-rule="evenodd" clip-rule="evenodd" d="M50.0137 3.20368V1.35596H56.9493V3.20368H54.9436V14.1977H58.0552C59.668 14.1977 60.0072 12.657 60.3785 11.0257H61.9183V16.0863H50.0163V14.1977H51.8126V3.20368H50.0137Z" fill="#343434"/>
<path fill-rule="evenodd" clip-rule="evenodd" d="M2.94821 23.5806V25.4283H4.73083V36.4531H2.93457V38.3109H10.0285V36.4531H7.86184V32.2033H12.2009C12.545 31.6969 12.5744 30.6987 12.2009 30.1193H7.86184V25.4283H11.508C13.5308 25.4283 13.6778 26.9513 14.0746 28.3847H15.6144V23.5806H2.94821ZM20.1303 23.5806L14.9906 36.4531H13.5185V38.3109H19.144V36.4531H17.3671L18.3433 33.8658H23.725L24.6867 36.4531H22.9934V38.3109H36.2047V36.4531H34.2232V32.0388H35.4862C37.7906 32.0388 38.4545 33.1025 38.6142 35.2692C38.8025 37.4068 39.5482 38.5023 42.0356 38.5023C42.7549 38.5023 43.5731 38.4125 43.5731 38.4125C43.768 37.9471 43.904 37.3343 43.5634 36.6607C41.9102 36.8385 41.8635 35.6577 41.7848 34.3797C41.7056 32.3252 40.5156 31.3793 38.7836 31.2196C41.0558 31.1738 42.7368 29.5817 42.7368 27.5677C42.7368 24.9422 40.4738 23.5806 37.8469 23.5806H29.2554V25.4793H31.0719V36.4531H28.2115L22.9309 23.5806H20.1303ZM34.2232 25.4793H36.4101C38.4998 25.4793 39.5037 26.1823 39.5037 27.84C39.5037 29.51 38.0449 30.1501 36.7264 30.1501H34.2232V25.4793ZM21.0225 26.5888L23.0651 32.0801H18.9799L21.0225 26.5888Z" fill="#343434"/>
<path fill-rule="evenodd" clip-rule="evenodd" d="M63.3051 15.1201V10.9843H64.8814C65.3953 13.3164 66.4238 14.5548 69.1668 14.5548C71.0146 14.5548 72.1967 13.9551 72.1967 12.4427C72.1967 8.67197 63.2959 11.6121 63.2959 5.44329C63.2959 2.67038 65.6469 0.915039 69.2078 0.915039C72.2666 0.915039 74.5662 2.2278 74.5662 2.2278V5.89246H72.9978C72.6058 3.66771 71.4109 2.84239 69.3406 2.84239C67.5364 2.84239 66.448 3.6378 66.448 4.84498C66.448 8.42649 75.3783 5.55239 75.3783 11.9618C75.3783 14.0145 73.9995 16.4804 69.3833 16.4804C65.4432 16.4804 63.3051 15.1201 63.3051 15.1201Z" fill="#343434"/>
<path fill-rule="evenodd" clip-rule="evenodd" d="M52.1965 38.7647C47.2499 38.7647 44.4316 35.4093 44.4316 31.0201C44.4316 26.7756 47.066 23.125 52.2532 23.125C55.3068 23.125 57.792 24.4602 57.792 24.4602V28.2194H56.2215C55.6258 26.5499 54.7543 25.0937 52.3399 25.0937C49.0725 25.0937 47.9533 27.8552 47.9533 30.9959C47.9533 34.3077 49.318 36.8277 52.5515 36.8277C53.8735 36.8277 54.9896 36.3085 54.9896 36.3085V32.6747H52.4789C52.1283 31.8656 52.2286 31.0949 52.4789 30.6013H58.1207V37.1316C58.1207 37.1316 55.4379 38.7647 52.1965 38.7647Z" fill="#343434"/>
<path fill-rule="evenodd" clip-rule="evenodd" d="M68.0535 23.1313C63.6379 23.1313 60.2227 26.1225 60.2227 31.0101C60.2227 35.6726 63.5978 38.7693 68.0337 38.7693C72.7542 38.7693 75.8707 35.3893 75.8707 30.9683C75.8707 26.2245 72.4256 23.1313 68.0535 23.1313ZM68.0016 25.1106C70.749 25.1106 72.3763 27.1515 72.3763 30.9318C72.3763 34.6656 70.8647 36.8019 68.0544 36.8019C65.164 36.8019 63.7069 34.5538 63.7069 31.0154C63.7069 27.558 65.0039 25.1106 68.0016 25.1106Z" fill="#343434"/>
</svg>

<svg width="76" height="39" fill="none" xmlns="http://www.w3.org/2000/svg"><path fill-rule="evenodd" clip-rule="evenodd" d="M.636 3.203V1.334h6.827v1.869h-1.93l2.422 8.647L10.89 1.355h3.071l2.966 10.622 2.37-8.774h-2.031V1.355h17.81V6.16h-1.54c-.397-1.433-.543-2.956-2.566-2.956h-3.388v4.404h4.21c.373.58.343 1.577 0 2.084h-4.21v4.506h3.836c1.613 0 1.952-1.54 2.323-3.172h1.54v5.06H22.655v-1.888h1.796V3.203h-2.86l-3.69 12.883h-2.945L11.99 5.48 8.96 16.085H5.995L2.31 3.204H.636ZM36.796 3.204V1.356h6.935v1.848h-2.005v10.994h3.111c1.613 0 1.952-1.541 2.324-3.172h1.54v5.06H36.797v-1.888h1.797V3.204h-1.8ZM50.014 3.204V1.356h6.935v1.848h-2.005v10.994h3.111c1.613 0 1.952-1.541 2.324-3.172h1.54v5.06H50.015v-1.888h1.797V3.204h-1.8ZM2.948 23.58v1.848h1.783v11.025H2.935v1.858h7.093v-1.858H7.862v-4.25H12.2c.344-.506.373-1.504 0-2.084H7.86v-4.69h3.647c2.023 0 2.17 1.522 2.567 2.956h1.54V23.58H2.947Zm17.182 0-5.14 12.873h-1.472v1.858h5.626v-1.858h-1.777l.976-2.587h5.382l.962 2.587h-1.694v1.858h13.212v-1.858h-1.982V32.04h1.263c2.305 0 2.969 1.063 3.128 3.23.189 2.138.934 3.233 3.422 3.233.719 0 1.537-.09 1.537-.09.195-.465.331-1.078-.01-1.751-1.653.178-1.7-1.003-1.778-2.281-.08-2.055-1.27-3-3.001-3.16 2.272-.046 3.953-1.638 3.953-3.652 0-2.626-2.263-3.987-4.89-3.987h-8.592v1.898h1.817v10.974h-2.86L22.93 23.581h-2.8Zm14.093 1.9h2.187c2.09 0 3.094.702 3.094 2.36 0 1.67-1.46 2.31-2.778 2.31h-2.503v-4.67Zm-13.2 1.109 2.042 5.491H18.98l2.043-5.491ZM63.305 15.12v-4.136h1.576c.514 2.332 1.543 3.57 4.286 3.57 1.848 0 3.03-.599 3.03-2.111 0-3.771-8.901-.83-8.901-7 0-2.773 2.35-4.528 5.912-4.528 3.059 0 5.358 1.313 5.358 1.313v3.664h-1.568c-.392-2.224-1.587-3.05-3.657-3.05-1.805 0-2.893.796-2.893 2.003 0 3.581 8.93.707 8.93 7.117 0 2.053-1.379 4.518-5.995 4.518-3.94 0-6.078-1.36-6.078-1.36ZM52.197 38.765c-4.947 0-7.765-3.356-7.765-7.745 0-4.244 2.634-7.895 7.821-7.895 3.054 0 5.539 1.335 5.539 1.335v3.76h-1.57c-.596-1.67-1.468-3.126-3.882-3.126-3.268 0-4.387 2.761-4.387 5.902 0 3.312 1.365 5.832 4.598 5.832 1.322 0 2.439-.52 2.439-.52v-3.633h-2.511c-.35-.81-.25-1.58 0-2.074h5.642v6.53s-2.683 1.634-5.925 1.634ZM68.053 23.131c-4.415 0-7.83 2.991-7.83 7.88 0 4.662 3.375 7.758 7.81 7.758 4.721 0 7.838-3.38 7.838-7.8 0-4.745-3.445-7.838-7.817-7.838Zm-.051 1.98c2.747 0 4.374 2.04 4.374 5.82 0 3.735-1.511 5.87-4.322 5.87-2.89 0-4.347-2.247-4.347-5.786 0-3.457 1.297-5.904 4.295-5.904Z" fill="#fff"/></svg>
